X: 1
T: Fiddle Hill Jig
C: Ralph Page
M: 6/8
K: G
"D7"B2A \
| "G"G2g f2e | d^cd edB \
| G2B c2^c | "D7"d3- dAB \
| c2d c2d | cAF DFA |
| "D7"ded [1 cdc | "G"B3 :|[2 cBA | "G"G3 |] [K:D] \
|: zFG \
| "D"[AA]BA "A7"[GG]AG | "D"FAd fed | "A7"c2e B2c |
| "(E)"BA^G "A7"AF=G | "D"[AA]BA "A7"[GG]AG \
| "D"FAd fed | "A7"cBA [1 ABc | "G"d3 :|[2 gfe | "D"d3  |]
